X:214744145505984
T:7-9-8-3-7-10-3-10-5-7-5-9-6-4-8-12
%%setfont-1 Courier-Bold 8
T:$1K.516f::104:84:171:63:154:129:134:123:90:71:7:166:76:58:89:131::$0
T:$1Perm. No.: 214744145505984$0
M:3/8
L:1/8
Q:1/8=111
%%staves [1 2]
V:1 clef=treble
V:2 clef=bass
K:C
%1
[V:1]|: e/d/e/g/c'/g/ |\
[V:2]|: C,2z |\
%2
[V:1] c/G/e/c/g/e/ |\
[V:2] [E,2C,2]z |\
%3
[V:1] B/c/d/e/f/d/ |\
[V:2] [G,2G,,2][G,B,,] |\
%4
[V:1] e/c/B/c/G |\
[V:2] C,2z |\
%5
[V:1] d/^c/d/^f/a/f/ |\
[V:2] C,2z |\
%6
[V:1] a/g/^f/g/d |\
[V:2] [D,B,,][D,B,,][G,B,,] |\
%7
[V:1] A/e/[d/B/][c/A/][B/G/][A/^F/] \
[V:2] C,D,D,, \
%8a
[V:1]|1 [g2d2B2G2]z :|2
[V:2]|1 G,,G,/=F,/E,/D,/ :|2
%8b
[V:1] [g2d2B2G2]z |:\
[V:2] G,,B,/G,/^F,/E,/ |:\
%9
[V:1] ^f/a/d'/a/f/a/ |\
[V:2] [A,2C,2][A,C,] |\
%10
[V:1] g/b/d'/b/g |\
[V:2] [D,2B,,2][D,B,,] |\
%11
[V:1] e/c/e/g/c'/g/ |\
[V:2] [G,2C,2]z |\
%12
[V:1] d/b/g/d/B |\
[V:2] [B,2G,2]z |\
%13
[V:1] c'/b/c'/g/e/c/ |\
[V:2] [E,2C,2][G,C,] |\
%14
[V:1] gec |\
[V:2] [E,/C,/]G,/[E,/C,/]G,/[E,/C,/]G,/ |\
%15
[V:1] f/e/dg |\
[V:2] F,/E,/D,G, |\
%16
[V:1] c2z :|]
[V:2] C,G,,C,, :|]
